app/images/logo.svg

<svg width="274" height="18" viewBox="0 0 274 18" fill="none" xmlns="http://www.w3.org/2000/svg">
<path d="M15.1719 17V15.418C14.6172 15.7227 14.0195 15.9922 13.3789 16.2266C12.7461 16.4609 12.0859 16.6602 11.3984 16.8242C10.7109 16.9883 10 17.1094 9.26562 17.1875C8.53906 17.2734 7.80469 17.3164 7.0625 17.3164C6.19531 17.3164 5.35547 17.2344 4.54297 17.0703C3.73828 16.9062 3.02344 16.6406 2.39844 16.2734C1.77344 15.9062 1.26953 15.4258 0.886719 14.832C0.511719 14.2383 0.324219 13.5117 0.324219 12.6523C0.324219 11.5664 0.621094 10.6641 1.21484 9.94531C1.80859 9.21875 2.71484 8.625 3.93359 8.16406C5.15234 7.70312 6.69141 7.34766 8.55078 7.09766C10.418 6.84766 12.625 6.65234 15.1719 6.51172V6.17188C15.1719 5.90625 15.1016 5.64453 14.9609 5.38672C14.8203 5.12109 14.5625 4.89062 14.1875 4.69531C13.8203 4.49219 13.3125 4.32812 12.6641 4.20312C12.0234 4.07812 11.2031 4.01562 10.2031 4.01562C9.41406 4.01562 8.63281 4.05859 7.85938 4.14453C7.09375 4.22266 6.35156 4.33203 5.63281 4.47266C4.92188 4.61328 4.24609 4.77734 3.60547 4.96484C2.96484 5.15234 2.38281 5.34766 1.85938 5.55078V1.68359C2.40625 1.54297 3.01953 1.40625 3.69922 1.27344C4.37891 1.14062 5.08594 1.02734 5.82031 0.933594C6.55469 0.832031 7.29688 0.753906 8.04688 0.699219C8.79688 0.636719 9.51562 0.605469 10.2031 0.605469C11.5547 0.605469 12.8008 0.71875 13.9414 0.945312C15.082 1.16406 16.0625 1.50781 16.8828 1.97656C17.7109 2.44531 18.3555 3.03906 18.8164 3.75781C19.2852 4.47656 19.5195 5.33203 19.5195 6.32422V17H15.1719ZM15.1719 9.65234C13.5 9.71484 12.0781 9.80469 10.9062 9.92188C9.74219 10.0391 8.77344 10.1758 8 10.332C7.22656 10.4883 6.61719 10.6562 6.17188 10.8359C5.73438 11.0156 5.40625 11.1992 5.1875 11.3867C4.96875 11.5742 4.83203 11.7617 4.77734 11.9492C4.73047 12.1367 4.70703 12.3086 4.70703 12.4648C4.70703 12.6523 4.75781 12.8359 4.85938 13.0156C4.96094 13.1875 5.13672 13.3398 5.38672 13.4727C5.64453 13.6055 5.98438 13.7109 6.40625 13.7891C6.82812 13.8672 7.35938 13.9062 8 13.9062C8.71094 13.9062 9.40625 13.8516 10.0859 13.7422C10.7656 13.6328 11.4102 13.4844 12.0195 13.2969C12.6289 13.1016 13.1992 12.875 13.7305 12.6172C14.2695 12.3516 14.75 12.0703 15.1719 11.7734V9.65234Z" fill="black"/>
<path d="M40.2608 4.54297C40.1436 4.50391 39.9717 4.45312 39.7452 4.39062C39.5264 4.32031 39.2686 4.25391 38.9717 4.19141C38.6748 4.12109 38.3467 4.0625 37.9873 4.01562C37.6358 3.96875 37.2725 3.94531 36.8975 3.94531C36.1162 3.94531 35.3858 4.04297 34.7061 4.23828C34.0342 4.42578 33.4053 4.67969 32.8194 5C32.2334 5.3125 31.6866 5.67188 31.1787 6.07812C30.6787 6.47656 30.2178 6.88672 29.7959 7.30859V17H25.4483V0.898438H29.7959V3.51172C30.3194 3.12109 30.8545 2.74609 31.4014 2.38672C31.9561 2.01953 32.5303 1.69531 33.1241 1.41406C33.7256 1.13281 34.3584 0.910156 35.0225 0.746094C35.6866 0.574219 36.3897 0.488281 37.1319 0.488281C37.4131 0.488281 37.6983 0.503906 37.9873 0.535156C38.2842 0.558594 38.5694 0.589844 38.8428 0.628906C39.1241 0.667969 39.3858 0.710938 39.628 0.757812C39.8702 0.804688 40.0811 0.851562 40.2608 0.898438V4.54297Z" fill="black"/>
<path d="M61.7286 15.8984C61.1661 16.1328 60.5997 16.3438 60.0294 16.5312C59.4591 16.7188 58.8692 16.8789 58.2598 17.0117C57.6505 17.1523 57.0059 17.2578 56.3262 17.3281C55.6544 17.3984 54.9317 17.4336 54.1583 17.4336C52.5177 17.4336 51.0059 17.2578 49.6231 16.9062C48.2481 16.5547 47.0606 16.0273 46.0606 15.3242C45.0684 14.6133 44.295 13.7305 43.7403 12.6758C43.1856 11.6133 42.9083 10.375 42.9083 8.96094C42.9083 7.54688 43.1856 6.3125 43.7403 5.25781C44.295 4.19531 45.0684 3.3125 46.0606 2.60938C47.0606 1.89844 48.2481 1.36719 49.6231 1.01562C51.0059 0.664062 52.5177 0.488281 54.1583 0.488281C54.9317 0.488281 55.6544 0.523438 56.3262 0.59375C57.0059 0.664062 57.6505 0.769531 58.2598 0.910156C58.8692 1.04297 59.4591 1.20312 60.0294 1.39062C60.5997 1.57812 61.1661 1.78906 61.7286 2.02344V5.9375C61.2833 5.69531 60.8145 5.45703 60.3223 5.22266C59.8302 4.98047 59.2872 4.76562 58.6934 4.57812C58.0997 4.38281 57.4473 4.22656 56.7364 4.10938C56.0255 3.98438 55.2247 3.92188 54.3341 3.92188C52.9669 3.92188 51.8302 4.0625 50.9239 4.34375C50.0255 4.625 49.3067 5 48.7677 5.46875C48.2286 5.9375 47.8497 6.47656 47.6309 7.08594C47.4122 7.6875 47.3028 8.3125 47.3028 8.96094C47.3028 9.39062 47.3497 9.81641 47.4434 10.2383C47.5372 10.6523 47.6934 11.0469 47.9122 11.4219C48.1309 11.7891 48.4161 12.1289 48.7677 12.4414C49.1192 12.7539 49.5567 13.0234 50.0802 13.25C50.6036 13.4766 51.213 13.6562 51.9083 13.7891C52.6114 13.9141 53.42 13.9766 54.3341 13.9766C55.2247 13.9766 56.0255 13.9219 56.7364 13.8125C57.4473 13.6953 58.0997 13.543 58.6934 13.3555C59.2872 13.168 59.8302 12.957 60.3223 12.7227C60.8145 12.4805 61.2833 12.2344 61.7286 11.9844V15.8984Z" fill="black"/>
<path d="M82.1534 17V10.2852H71.0909V17H66.7433V0.898438H71.0909V6.75781H82.1534V0.898438H86.5011V17H82.1534Z" fill="black"/>
<path d="M92.5002 17V0.898438H96.8478V17H92.5002Z" fill="black"/>
<path d="M111.882 4.40234V17H107.534V4.40234H100.702V0.898438H118.726V4.40234H111.882Z" fill="black"/>
<path d="M140.522 16.2031C139.201 16.6406 137.881 16.9531 136.561 17.1406C135.248 17.3359 133.905 17.4336 132.53 17.4336C130.772 17.4336 129.205 17.2461 127.83 16.8711C126.463 16.4883 125.311 15.9375 124.373 15.2188C123.436 14.5 122.721 13.6211 122.229 12.582C121.737 11.543 121.49 10.3672 121.49 9.05469C121.49 7.83594 121.737 6.70703 122.229 5.66797C122.729 4.62109 123.432 3.71484 124.338 2.94922C125.252 2.17578 126.354 1.57422 127.643 1.14453C128.932 0.707031 130.369 0.488281 131.955 0.488281C133.416 0.488281 134.752 0.6875 135.963 1.08594C137.182 1.47656 138.225 2.05859 139.092 2.83203C139.967 3.60547 140.643 4.55859 141.119 5.69141C141.604 6.82422 141.846 8.12891 141.846 9.60547V10.6836H125.979C126.119 11.1914 126.35 11.6562 126.67 12.0781C126.998 12.5 127.44 12.8594 127.994 13.1562C128.549 13.4531 129.229 13.6836 130.033 13.8477C130.846 14.0117 131.815 14.0938 132.94 14.0938C133.737 14.0938 134.518 14.0469 135.283 13.9531C136.049 13.8516 136.764 13.7227 137.428 13.5664C138.092 13.4023 138.69 13.2227 139.221 13.0273C139.76 12.832 140.194 12.6367 140.522 12.4414V16.2031ZM137.522 7.49609C137.483 7.09766 137.362 6.6875 137.158 6.26562C136.963 5.83594 136.651 5.44922 136.221 5.10547C135.791 4.76172 135.229 4.48047 134.533 4.26172C133.838 4.03516 132.971 3.92188 131.932 3.92188C130.955 3.92188 130.112 4.04297 129.401 4.28516C128.69 4.52734 128.092 4.82812 127.608 5.1875C127.131 5.54688 126.76 5.93359 126.494 6.34766C126.229 6.76172 126.057 7.14453 125.979 7.49609H137.522Z" fill="black"/>
<path d="M164.497 15.8984C163.935 16.1328 163.368 16.3438 162.798 16.5312C162.228 16.7188 161.638 16.8789 161.029 17.0117C160.419 17.1523 159.775 17.2578 159.095 17.3281C158.423 17.3984 157.7 17.4336 156.927 17.4336C155.286 17.4336 153.775 17.2578 152.392 16.9062C151.017 16.5547 149.829 16.0273 148.829 15.3242C147.837 14.6133 147.064 13.7305 146.509 12.6758C145.954 11.6133 145.677 10.375 145.677 8.96094C145.677 7.54688 145.954 6.3125 146.509 5.25781C147.064 4.19531 147.837 3.3125 148.829 2.60938C149.829 1.89844 151.017 1.36719 152.392 1.01562C153.775 0.664062 155.286 0.488281 156.927 0.488281C157.7 0.488281 158.423 0.523438 159.095 0.59375C159.775 0.664062 160.419 0.769531 161.029 0.910156C161.638 1.04297 162.228 1.20312 162.798 1.39062C163.368 1.57812 163.935 1.78906 164.497 2.02344V5.9375C164.052 5.69531 163.583 5.45703 163.091 5.22266C162.599 4.98047 162.056 4.76562 161.462 4.57812C160.868 4.38281 160.216 4.22656 159.505 4.10938C158.794 3.98438 157.993 3.92188 157.103 3.92188C155.736 3.92188 154.599 4.0625 153.693 4.34375C152.794 4.625 152.075 5 151.536 5.46875C150.997 5.9375 150.618 6.47656 150.4 7.08594C150.181 7.6875 150.072 8.3125 150.072 8.96094C150.072 9.39062 150.118 9.81641 150.212 10.2383C150.306 10.6523 150.462 11.0469 150.681 11.4219C150.9 11.7891 151.185 12.1289 151.536 12.4414C151.888 12.7539 152.325 13.0234 152.849 13.25C153.372 13.4766 153.982 13.6562 154.677 13.7891C155.38 13.9141 156.189 13.9766 157.103 13.9766C157.993 13.9766 158.794 13.9219 159.505 13.8125C160.216 13.6953 160.868 13.543 161.462 13.3555C162.056 13.168 162.599 12.957 163.091 12.7227C163.583 12.4805 164.052 12.2344 164.497 11.9844V15.8984Z" fill="black"/>
<path d="M178.535 4.40234V17H174.188V4.40234H167.356V0.898438H185.379V4.40234H178.535Z" fill="black"/>
<path d="M193.499 0.898438V9.96875C193.499 10.5703 193.55 11.1172 193.652 11.6094C193.753 12.0938 193.941 12.5117 194.214 12.8633C194.488 13.207 194.87 13.4766 195.363 13.6719C195.855 13.8594 196.495 13.9531 197.285 13.9531C197.878 13.9531 198.499 13.8711 199.148 13.707C199.804 13.543 200.452 13.3242 201.093 13.0508C201.734 12.7773 202.343 12.4648 202.921 12.1133C203.507 11.7539 204.031 11.3828 204.492 11V0.898438H208.827V17H204.492V14.7969C203.945 15.1094 203.363 15.4258 202.745 15.7461C202.128 16.0586 201.472 16.3438 200.777 16.6016C200.081 16.8516 199.343 17.0547 198.562 17.2109C197.781 17.375 196.956 17.457 196.089 17.457C195.003 17.457 194.031 17.3242 193.171 17.0586C192.312 16.8008 191.585 16.4336 190.992 15.957C190.398 15.4727 189.941 14.8906 189.62 14.2109C189.308 13.5234 189.152 12.7578 189.152 11.9141V0.898438H193.499Z" fill="black"/>
<path d="M229.651 4.54297C229.534 4.50391 229.362 4.45312 229.135 4.39062C228.916 4.32031 228.659 4.25391 228.362 4.19141C228.065 4.12109 227.737 4.0625 227.377 4.01562C227.026 3.96875 226.663 3.94531 226.288 3.94531C225.506 3.94531 224.776 4.04297 224.096 4.23828C223.424 4.42578 222.795 4.67969 222.209 5C221.623 5.3125 221.077 5.67188 220.569 6.07812C220.069 6.47656 219.608 6.88672 219.186 7.30859V17H214.838V0.898438H219.186V3.51172C219.709 3.12109 220.245 2.74609 220.791 2.38672C221.346 2.01953 221.92 1.69531 222.514 1.41406C223.116 1.13281 223.748 0.910156 224.413 0.746094C225.077 0.574219 225.78 0.488281 226.522 0.488281C226.803 0.488281 227.088 0.503906 227.377 0.535156C227.674 0.558594 227.959 0.589844 228.233 0.628906C228.514 0.667969 228.776 0.710938 229.018 0.757812C229.26 0.804688 229.471 0.851562 229.651 0.898438V4.54297Z" fill="black"/>
<path d="M247.029 17V15.418C246.474 15.7227 245.876 15.9922 245.236 16.2266C244.603 16.4609 243.943 16.6602 243.255 16.8242C242.568 16.9883 241.857 17.1094 241.122 17.1875C240.396 17.2734 239.662 17.3164 238.919 17.3164C238.052 17.3164 237.212 17.2344 236.4 17.0703C235.595 16.9062 234.88 16.6406 234.255 16.2734C233.63 15.9062 233.126 15.4258 232.744 14.832C232.369 14.2383 232.181 13.5117 232.181 12.6523C232.181 11.5664 232.478 10.6641 233.072 9.94531C233.665 9.21875 234.572 8.625 235.79 8.16406C237.009 7.70312 238.548 7.34766 240.408 7.09766C242.275 6.84766 244.482 6.65234 247.029 6.51172V6.17188C247.029 5.90625 246.958 5.64453 246.818 5.38672C246.677 5.12109 246.419 4.89062 246.044 4.69531C245.677 4.49219 245.169 4.32812 244.521 4.20312C243.88 4.07812 243.06 4.01562 242.06 4.01562C241.271 4.01562 240.49 4.05859 239.716 4.14453C238.951 4.22266 238.208 4.33203 237.49 4.47266C236.779 4.61328 236.103 4.77734 235.462 4.96484C234.822 5.15234 234.24 5.34766 233.716 5.55078V1.68359C234.263 1.54297 234.876 1.40625 235.556 1.27344C236.236 1.14062 236.943 1.02734 237.677 0.933594C238.412 0.832031 239.154 0.753906 239.904 0.699219C240.654 0.636719 241.372 0.605469 242.06 0.605469C243.412 0.605469 244.658 0.71875 245.798 0.945312C246.939 1.16406 247.919 1.50781 248.74 1.97656C249.568 2.44531 250.212 3.03906 250.673 3.75781C251.142 4.47656 251.376 5.33203 251.376 6.32422V17H247.029ZM247.029 9.65234C245.357 9.71484 243.935 9.80469 242.763 9.92188C241.599 10.0391 240.63 10.1758 239.857 10.332C239.083 10.4883 238.474 10.6562 238.029 10.8359C237.591 11.0156 237.263 11.1992 237.044 11.3867C236.826 11.5742 236.689 11.7617 236.634 11.9492C236.587 12.1367 236.564 12.3086 236.564 12.4648C236.564 12.6523 236.615 12.8359 236.716 13.0156C236.818 13.1875 236.994 13.3398 237.244 13.4727C237.501 13.6055 237.841 13.7109 238.263 13.7891C238.685 13.8672 239.216 13.9062 239.857 13.9062C240.568 13.9062 241.263 13.8516 241.943 13.7422C242.622 13.6328 243.267 13.4844 243.876 13.2969C244.486 13.1016 245.056 12.875 245.587 12.6172C246.126 12.3516 246.607 12.0703 247.029 11.7734V9.65234Z" fill="black"/>
<path d="M261.653 10.1094C261.653 10.7812 261.715 11.332 261.84 11.7617C261.965 12.1836 262.168 12.5195 262.45 12.7695C262.731 13.0195 263.094 13.1914 263.54 13.2852C263.993 13.3789 264.547 13.4258 265.204 13.4258H273.454V17H264.313C263.047 17 261.969 16.8984 261.079 16.6953C260.196 16.4844 259.473 16.1641 258.911 15.7344C258.348 15.2969 257.938 14.7461 257.68 14.082C257.43 13.418 257.305 12.6289 257.305 11.7148V0.898438H261.653V10.1094Z" fill="black"/>
</svg>

<svg width="274" height="18" xmlns="http://www.w3.org/2000/svg">
  <path d="M15.17 17v-1.58a17.18 17.18 0 0 1-5.9 1.77c-.73.08-1.47.13-2.2.13-.87 0-1.71-.09-2.53-.25a6.94 6.94 0 0 1-2.14-.8 4.45 4.45 0 0 1-1.51-1.44 4 4 0 0 1-.57-2.18c0-1.08.3-1.99.9-2.7a6.3 6.3 0 0 1 2.71-1.79A21.3 21.3 0 0 1 8.55 7.1c1.87-.25 4.07-.45 6.62-.59v-.34c0-.26-.07-.53-.2-.78-.15-.27-.4-.5-.78-.7-.37-.2-.88-.36-1.53-.49-.64-.12-1.46-.18-2.46-.18a24.6 24.6 0 0 0-8.34 1.54V1.67A32.35 32.35 0 0 1 5.82.93 34.64 34.64 0 0 1 10.2.61c1.35 0 2.6.1 3.74.34 1.14.21 2.12.56 2.94 1.03a5.4 5.4 0 0 1 1.94 1.78c.47.72.7 1.57.7 2.56V17h-4.35Zm0-7.35c-1.67.06-3.1.15-4.26.27-1.17.12-2.14.26-2.91.41-.77.16-1.38.33-1.83.5a3.7 3.7 0 0 0-.98.56c-.22.18-.36.37-.41.56-.05.19-.07.36-.07.51 0 .2.05.38.15.56.1.17.28.32.53.45.25.14.6.24 1.02.32a13.1 13.1 0 0 0 8.77-2.02V9.65ZM40.26 4.54a11.07 11.07 0 0 0-1.29-.35 9.77 9.77 0 0 0-2.07-.24c-.78 0-1.51.1-2.2.29a10.62 10.62 0 0 0-3.53 1.84c-.5.4-.95.8-1.37 1.23V17h-4.35V.9h4.35V3.5c.52-.39 1.05-.76 1.6-1.12.56-.37 1.13-.7 1.72-.98.6-.28 1.24-.5 1.9-.66A8.39 8.39 0 0 1 38 .54a13.65 13.65 0 0 1 2.27.36v3.64ZM61.73 15.9A23.44 23.44 0 0 1 58.26 17c-.6.14-1.25.25-1.93.32a20.88 20.88 0 0 1-6.7-.42 10.77 10.77 0 0 1-3.57-1.59c-1-.7-1.77-1.59-2.32-2.64a7.92 7.92 0 0 1-.83-3.72 7.4 7.4 0 0 1 3.15-6.35c1-.71 2.19-1.24 3.56-1.6a20.88 20.88 0 0 1 6.7-.42 17.8 17.8 0 0 1 5.4 1.43v3.92c-.44-.24-.9-.48-1.4-.72a13.07 13.07 0 0 0-3.59-1.11c-.7-.13-1.5-.19-2.4-.19-1.36 0-2.5.14-3.4.42-.9.29-1.62.66-2.16 1.13-.54.47-.92 1-1.14 1.62a5.45 5.45 0 0 0 .28 4.33 4.33 4.33 0 0 0 2.17 1.83c.52.23 1.13.4 1.83.54a15.9 15.9 0 0 0 4.83.02 14.15 14.15 0 0 0 3.58-1.09c.5-.24.96-.49 1.4-.74v3.92ZM82.15 17v-6.71H71.1V17h-4.35V.9h4.35v5.86h11.06V.9h4.35V17h-4.35ZM92.5 17V.9h4.35V17H92.5ZM111.88 4.4V17h-4.35V4.4h-6.83V.9h18.03v3.5h-6.85ZM140.52 16.2c-1.32.44-2.64.75-3.96.94-1.31.2-2.66.3-4.03.3a17.9 17.9 0 0 1-4.7-.57 10.1 10.1 0 0 1-3.46-1.65 7.14 7.14 0 0 1-2.14-2.64 8.14 8.14 0 0 1-.74-3.53 7.81 7.81 0 0 1 2.85-6.1 9.9 9.9 0 0 1 3.3-1.8c1.3-.44 2.73-.66 4.32-.66 1.46 0 2.8.2 4 .6 1.22.39 2.26.97 3.13 1.74a7.78 7.78 0 0 1 2.03 2.86c.48 1.13.73 2.44.73 3.92v1.07h-15.87c.14.51.37.98.69 1.4.33.42.77.78 1.32 1.08.56.3 1.24.52 2.04.69a19.24 19.24 0 0 0 9.19-.82c.54-.2.97-.4 1.3-.59v3.76Zm-3-8.7a3.64 3.64 0 0 0-1.3-2.4c-.43-.34-1-.62-1.69-.84a8.5 8.5 0 0 0-2.6-.34c-.97 0-1.82.12-2.53.37-.71.24-1.3.54-1.8.9-.47.36-.84.74-1.1 1.16-.27.41-.44.8-.52 1.15h11.54ZM164.5 15.9a23.4 23.4 0 0 1-3.47 1.11c-.61.14-1.25.25-1.94.32a20.9 20.9 0 0 1-6.7-.42 10.77 10.77 0 0 1-3.56-1.59c-1-.7-1.77-1.59-2.32-2.64a7.91 7.91 0 0 1-.83-3.72 7.41 7.41 0 0 1 3.15-6.35c1-.71 2.19-1.24 3.56-1.6a20.9 20.9 0 0 1 6.7-.42 17.79 17.79 0 0 1 5.4 1.43v3.92c-.44-.24-.9-.48-1.4-.72a13.08 13.08 0 0 0-3.59-1.11c-.7-.13-1.5-.19-2.4-.19-1.36 0-2.5.14-3.4.42-.9.29-1.63.66-2.16 1.13-.54.47-.92 1-1.14 1.62a5.44 5.44 0 0 0 .28 4.33 4.35 4.35 0 0 0 2.17 1.83c.52.23 1.13.4 1.83.54a15.9 15.9 0 0 0 4.83.02 14.16 14.16 0 0 0 3.58-1.09c.5-.24.96-.49 1.4-.74v3.92ZM178.53 4.4V17h-4.34V4.4h-6.83V.9h18.02v3.5h-6.84ZM193.5.9v9.07c0 .6.05 1.15.15 1.64.1.48.3.9.56 1.25.28.35.66.62 1.15.81.5.19 1.13.28 1.92.28.6 0 1.22-.08 1.87-.24a12.97 12.97 0 0 0 3.77-1.6c.59-.36 1.11-.73 1.57-1.11V.9h4.34V17h-4.34v-2.2c-.55.3-1.13.63-1.75.95a15.59 15.59 0 0 1-4.18 1.46 12.01 12.01 0 0 1-5.39-.15 6.35 6.35 0 0 1-2.18-1.1 4.96 4.96 0 0 1-1.84-4.05V.9h4.35ZM229.65 4.54a10.86 10.86 0 0 0-1.29-.35 9.76 9.76 0 0 0-2.07-.24c-.78 0-1.51.1-2.2.29a10.62 10.62 0 0 0-3.53 1.84c-.5.4-.95.8-1.37 1.23V17h-4.35V.9h4.35V3.5c.52-.39 1.06-.76 1.6-1.12.56-.37 1.13-.7 1.72-.98.6-.28 1.24-.5 1.9-.66a8.39 8.39 0 0 1 2.97-.21 13.7 13.7 0 0 1 2.27.36v3.64ZM247.03 17v-1.58a17.17 17.17 0 0 1-5.9 1.77c-.73.08-1.47.13-2.21.13-.87 0-1.7-.09-2.52-.25a6.94 6.94 0 0 1-2.15-.8 4.44 4.44 0 0 1-1.5-1.44 4 4 0 0 1-.57-2.18c0-1.08.3-1.99.9-2.7a6.3 6.3 0 0 1 2.71-1.79 21.3 21.3 0 0 1 4.62-1.06c1.87-.25 4.07-.45 6.62-.59v-.34c0-.26-.07-.53-.21-.78-.14-.27-.4-.5-.78-.7-.36-.2-.87-.36-1.52-.49-.64-.12-1.46-.18-2.46-.18a24.58 24.58 0 0 0-8.34 1.54V1.67a32.32 32.32 0 0 1 3.96-.75 34.7 34.7 0 0 1 4.38-.32c1.35 0 2.6.1 3.74.34 1.14.21 2.12.56 2.94 1.03a5.4 5.4 0 0 1 1.93 1.78c.47.72.7 1.57.7 2.56V17h-4.34Zm0-7.35c-1.67.06-3.1.15-4.27.27-1.16.12-2.13.26-2.9.41-.78.16-1.39.33-1.83.5a3.7 3.7 0 0 0-.99.56c-.21.18-.35.37-.4.56-.05.19-.08.36-.08.51 0 .2.06.38.16.56.1.17.27.32.52.45.26.14.6.24 1.02.32a13.11 13.11 0 0 0 8.77-2.02V9.65ZM261.65 10.1c0 .68.06 1.23.19 1.66.13.42.33.76.61 1.01.28.25.64.42 1.09.52.45.09 1 .14 1.66.14h8.25V17h-9.14c-1.26 0-2.34-.1-3.23-.3a5.72 5.72 0 0 1-2.17-.97 3.8 3.8 0 0 1-1.23-1.65 6.72 6.72 0 0 1-.38-2.37V.9h4.35v9.2Z" fill="#000" />
</svg>
